X:1
T:Scatter Smiles as You Go
T:Scatter Smiles as You Go
T:William Batchelder Bradbury
T:R. S. Taylor, 1864
T:Public Domain Courtesy of the Cyber Hymnal™
T:Public Domain Courtesy of the Cyber Hymnal™
C:William Batchelder Bradbury
Z:Public Domain
Z:Courtesy of the Cyber Hymnal™
%%score ( 1 2 ) ( 3 4 )
L:1/8
Q:1/4=100
M:4/4
K:A
V:1 treble 
V:2 treble 
V:3 bass 
V:4 bass 
V:1
 CD | E2 [Ec]2 [Ec]2 [Ec][Ec] | [Ec]2 [Fd][Ec] [DB]2 [Ec][DB] | [CA]2 [CA]2 [FB]2 (AB) | %4
w: 1.~Scat- ter|smiles, bright smiles As you|pass on your way, Thro’ this|world of toil and *|
w: 2.~Scat- ter|smiles, bright smiles, ’Tis but|lit- tle they cost; But your|heart may nev- er *|
w: 3.~Scat- ter|smiles, bright smiles O’er the|grave of the past, Where the|or- phan’s trea- sure *|
w: 4.~Scat- ter|smiles, bright smiles, O’er the|young who have strayed, From the|path where once they *|
w: 5.~Scat- ter|smiles, bright smiles, as you|pass on your way Through this|world of toil and *|
 [^Ec]6 [Ac][Ac] | [Bd]2 [Bd][Bd] [Ac][Ac] [Ac]2 | [GB]2 [FA]2 [EG]2 [DF][DF] | %7
w: care; Like the|beams of the morn- ing that|gent- ly play, They will|
w: know What a|joy they may car- ry to|wea- ry ones Who are|
w: lies; In the|tear drop that glis- tens there,|light will shine, As the|
w: trod; You may|lead to the fount- ain of|truth a- gain, You may|
w: care; LIke the|beams of the morn- ing that|gent- ly play, They will|
 [CE]2 [CA]2 [DB]2 [Ec]2 | [CA]6 ||"^Refrain" [B,G][CA] | [DB]6 [Ec]2 | [CA]6 [CA][EG] | %12
w: leave a sun- light|there.||||
w: pale with want and|woe.||||
w: rain- bow paints the|skies.|Scat- ter|smiles, bright|smiles, Scat- ter|
w: bring them home to|God.||||
w: leave a sun- light|there.||||
 [DF]2 EE [DF]2 [DG][DG] | [CA]6 [B,G][CA] | [EB]6 [Ee]2 | !fermata![Ee]6 [Ec][EA] | [DB]6 [Ec]2 | %17
w: |||||
w: |||||
w: smiles as you pass on your|way; Scat- ter|smiles, bright|smiles, Scat- ter|smiles, bright|
w: |||||
w: |||||
 [CA]6 |] %18
w: |
w: |
w: smiles.|
w: |
w: |
V:2
 CD | E2 x6 | x8 | x6 F2 | x8 | x8 | x8 | x8 | x6 || x2 | x8 | x8 | x2 EE x4 | x8 | x8 | x8 | x8 | %17
 x6 |] %18
V:3
 C,D, | E,2 [A,,A,]2 [A,,A,]2 [A,,A,][A,,A,] | A,2 A,A, [E,G,]2 [E,G,][^E,G,] | %3
w: * Scat-|ter * * * *|smiles, bright smiles, * * *|
 [F,A,]2 [F,A,]2 [D,F,]2 [D,F,]2 | [C,G,]6 [A,,A,][A,,A,] | E,2 F,E, E,E, E,2 | %6
w: |||
 E,2 E,2 E,2 [E,G,][E,G,] | [E,A,]2 [E,A,]2 [E,G,]2 [E,G,]2 | [A,,A,]6 || [E,B,][E,C] | D4 E,2 C2 | %11
w: |||Scat- ter|smiles, bright smiles,|
 C6 [A,,A,][A,,A,] | [D,A,]2 [C,A,][C,A,] [B,,D]2 [E,B,][E,B,] | [A,,A,]6 E,E, | %14
w: Scat- * *||* ter smiles,|
 [E,G,]2 [E,G,]2 [E,G,]2 [F,A,][G,B,] | !fermata!C6 !fermata![A,,A,][C,A,] | G,6 G,2 | [A,,A,]6 |] %18
w: bright smiles, * * *||||
V:4
 C,D, | E,2 x6 | A,2 A,A, x4 | x8 | x8 | x8 | x8 | x8 | x6 || x2 | (E,2 E,2 E,E,) x2 | %11
 (A,,2 A,,2 A,,2) x2 | x8 | x6 E,E, | x8 | A,2 A,2 A,2 x2 | (E,2 E,E, E,2) (E,E,) | x6 |] %18

